public/library/simpleswap-text-dark.svg

<svg xmlns="http://www.w3.org/2000/svg" width="1955" height="445" fill="none" viewBox="0 0 1955 445"><path fill="#104ade" d="M79.002 329.035a77.15 77.15 0 0 0-7.045 32.199c0 10.26 2.05 20.42 6.034 29.899a78.1 78.1 0 0 0 17.186 25.347 79.4 79.4 0 0 0 25.717 16.938 80.3 80.3 0 0 0 30.337 5.948 80.3 80.3 0 0 0 30.336-5.948 79.4 79.4 0 0 0 25.718-16.938l145.877-143.765c15.197-14.98 23.735-35.296 23.735-56.479 0-19.027-5.975-37.36-19.025-51.745-6.439-2.742-13.558-3.583-20.451-2.307-6.165 1.14-11.817 4.748-16.521 8.985L182.319 311.341a34.5 34.5 0 0 1-8.745 6.453 116 116 0 0 0 5.027-3.228l-.423.167.412-.275.424-.285q-.417.282-.836.56c-21.003 13.935-46.069 20.712-71.364 19.28a117.4 117.4 0 0 1-27.812-4.978"/><path fill="#0038c7" d="M178.17 314.732q.419-.278.836-.56a34.9 34.9 0 0 1-16.812 2.269 34.7 34.7 0 0 1-15.868-5.921 34.85 34.85 0 0 1-10.206-11.014 34.3 34.3 0 0 1-4.562-14.222 34.2 34.2 0 0 1 1.925-14.795 34.6 34.6 0 0 1 8.058-12.626l46.128-45.86 67.368-66.397q.143-.118.284-.24c.189-.161.377-.322.576-.472l10.14-10c4.959-1.009 10.203-1.443 15.673-1.443 11.848 0 21.926 1.141 31.972 4.004 14.611 3.11 28.053 10.329 38.68 20.846a85 85 0 0 1 5.645 6.251c-6.477-2.79-13.65-3.653-20.594-2.369-6.166 1.141-11.817 4.749-16.522 8.986l-138.58 140.172a34.5 34.5 0 0 1-8.746 6.453q2.55-1.547 5.028-3.228z"/><path fill="#0f75fc" d="M289.98 48.062a72.3 72.3 0 0 0-15.938-23.49 85.1 85.1 0 0 0-27.598-18.186A86.1 86.1 0 0 0 213.886 0a86.1 86.1 0 0 0-32.559 6.386 85.1 85.1 0 0 0-27.598 18.187L33.624 142.914C12.534 163.7.48 191.759.014 221.151s10.69 57.809 31.108 79.235l1.251 1.199 1.297 1.323a48 48 0 0 0 3.718 3.246c19.37 16.608 43.788 26.407 69.42 27.859 25.632 1.451 51.028-5.528 72.2-19.841a34.9 34.9 0 0 1-16.811 2.269 34.7 34.7 0 0 1-15.869-5.922 34.8 34.8 0 0 1-10.205-11.014 34.3 34.3 0 0 1-4.563-14.222 34.2 34.2 0 0 1 1.926-14.794 34.6 34.6 0 0 1 8.057-12.626l46.129-45.86 67.368-66.397c.286-.238.562-.487.86-.713l18.142-17.891c10.281-10.124 17.283-23.026 20.121-37.075a71.4 71.4 0 0 0-4.183-41.842z"/><path fill="#fff" d="M1380.67 320.867c-11.15 0-21.23-1.91-30.25-5.731q-13.29-5.73-21.09-16.505c-5.19-7.183-7.87-15.665-8.02-25.446h34.38c.46 6.572 2.75 11.768 6.88 15.588 4.28 3.821 10.08 5.731 17.42 5.731 7.48 0 13.37-1.757 17.65-5.272 4.27-3.668 6.41-8.406 6.41-14.213q0-7.107-4.35-11.692c-2.9-3.056-6.57-5.425-11-7.106q-6.42-2.751-17.88-5.96-15.585-4.585-25.44-8.941-9.63-4.584-16.74-13.525-6.87-9.17-6.87-24.3c0-9.475 2.37-17.728 7.1-24.758q7.11-10.545 19.95-16.047c8.55-3.821 18.33-5.731 29.33-5.731q24.765 0 40.11 12.15c10.4 7.947 16.13 19.103 17.2 33.469h-35.3q-.465-8.253-7.11-13.525-6.42-5.502-17.19-5.502c-6.26 0-11.31 1.605-15.13 4.814-3.66 3.21-5.5 7.871-5.5 13.984 0 4.279 1.38 7.871 4.13 10.774 2.9 2.751 6.42 5.044 10.54 6.878q6.42 2.522 17.88 5.96 15.585 4.585 25.44 9.17c6.57 3.056 12.23 7.641 16.96 13.754q7.11 9.17 7.11 24.071c0 8.558-2.22 16.505-6.65 23.841s-10.92 13.22-19.48 17.652c-8.56 4.279-18.72 6.418-30.49 6.418M1641.14 192.262l-37.13 127.001h-34.61l-23.15-88.717-23.15 88.717h-34.84l-37.36-127.001h32.55l22.46 96.741 24.29-96.741h33.93l23.83 96.511 22.47-96.511zM1650.25 255.304q0-19.256 7.56-34.157c5.2-9.934 12.15-17.575 20.86-22.924 8.87-5.349 18.72-8.024 29.57-8.024 9.47 0 17.73 1.91 24.75 5.731 7.19 3.821 12.92 8.635 17.2 14.442v-18.11h32.31v127.001h-32.31v-18.569c-4.13 5.96-9.86 10.927-17.2 14.901-7.18 3.82-15.51 5.731-24.98 5.731-10.7 0-20.47-2.751-29.34-8.253-8.71-5.502-15.66-13.22-20.86-23.153q-7.56-15.13-7.56-34.616m99.94.458q0-11.691-4.59-19.944c-3.06-5.654-7.18-9.933-12.38-12.837-5.19-3.057-10.77-4.585-16.73-4.585q-8.94 0-16.5 4.356c-5.04 2.903-9.17 7.182-12.38 12.837-3.05 5.502-4.58 12.074-4.58 19.715s1.53 14.366 4.58 20.173c3.21 5.655 7.34 10.011 12.38 13.067 5.19 3.057 10.7 4.585 16.5 4.585 5.96 0 11.54-1.452 16.73-4.356 5.2-3.056 9.32-7.335 12.38-12.837q4.59-8.482 4.59-20.174M1845.93 210.602c4.13-5.808 9.78-10.622 16.96-14.443q11.01-5.96 24.99-5.96 16.275 0 29.34 8.024 13.29 8.023 20.85 22.924 7.8 14.672 7.8 34.157t-7.8 34.616q-7.56 14.9-20.85 23.153-13.065 8.253-29.34 8.253c-9.32 0-17.57-1.911-24.76-5.731q-10.545-5.731-17.19-14.443v78.631h-32.09V192.262h32.09zm67.16 44.702c0-7.641-1.6-14.213-4.81-19.715-3.06-5.655-7.18-9.934-12.38-12.837q-7.56-4.356-16.5-4.356c-5.81 0-11.31 1.528-16.51 4.585-5.04 2.904-9.16 7.183-12.37 12.837q-4.59 8.483-4.59 19.944 0 11.463 4.59 19.945c3.21 5.654 7.33 10.01 12.37 13.066 5.2 2.904 10.7 4.356 16.51 4.356q8.94 0 16.5-4.585c5.2-3.056 9.32-7.412 12.38-13.067 3.21-5.654 4.81-12.379 4.81-20.173M569.919 320.867q-16.732 0-30.256-5.731-13.293-5.73-21.087-16.505-7.793-10.774-8.022-25.446h34.381q.688 9.858 6.876 15.588 6.419 5.732 17.42 5.732 11.232 0 17.649-5.273 6.418-5.502 6.418-14.213 0-7.107-4.355-11.691-4.355-4.586-11.002-7.107-6.418-2.751-17.878-5.96-15.586-4.585-25.442-8.941-9.627-4.584-16.732-13.525-6.876-9.17-6.876-24.3 0-14.213 7.105-24.758t19.941-16.047q12.836-5.731 29.339-5.731 24.753 0 40.111 12.15 15.586 11.92 17.19 33.469h-35.298q-.458-8.253-7.105-13.525-6.418-5.502-17.191-5.502-9.397 0-15.127 4.814-5.501 4.815-5.501 13.984 0 6.419 4.126 10.774 4.354 4.127 10.543 6.878 6.418 2.522 17.878 5.96 15.587 4.585 25.442 9.17 9.857 4.584 16.961 13.754 7.106 9.17 7.106 24.071 0 12.837-6.647 23.841t-19.483 17.652q-12.835 6.418-30.484 6.418M670.627 177.132q-8.481 0-14.211-5.272-5.501-5.502-5.501-13.525t5.501-13.297q5.73-5.5 14.211-5.501 8.48 0 13.981 5.501 5.73 5.273 5.73 13.297 0 8.023-5.73 13.525-5.501 5.272-13.981 5.272m15.815 15.13v127.001h-32.089V192.262zM875.84 190.428q23.379 0 37.59 14.443 14.44 14.212 14.44 39.888v74.504h-32.089v-70.148q0-14.901-7.564-22.695-7.563-8.024-20.628-8.024t-20.858 8.024q-7.564 7.794-7.564 22.695v70.148h-32.089v-70.148q0-14.901-7.564-22.695-7.563-8.024-20.628-8.024-13.295 0-21.087 8.024-7.564 7.794-7.564 22.695v70.148h-32.089V192.262h32.089v15.36q6.188-8.024 15.815-12.609 9.856-4.585 21.546-4.585 14.898 0 26.588 6.419 11.689 6.19 18.107 17.881 6.189-11.004 17.878-17.652 11.919-6.648 25.671-6.648M990.41 210.602q6.189-8.712 16.96-14.442c7.34-3.974 15.66-5.961 24.98-5.961q16.275 0 29.34 8.024c8.87 5.349 15.82 12.99 20.86 22.924 5.2 9.781 7.79 21.167 7.79 34.157s-2.59 24.529-7.79 34.616c-5.04 9.933-11.99 17.651-20.86 23.153q-13.065 8.253-29.34 8.253-13.98 0-24.75-5.731-10.544-5.731-17.19-14.442v78.63h-32.089V192.262h32.089zm67.16 44.702c0-7.641-1.61-14.213-4.82-19.715-3.05-5.654-7.18-9.934-12.37-12.837-5.05-2.904-10.55-4.356-16.51-4.356q-8.7 0-16.5 4.585-7.561 4.356-12.376 12.837-4.584 8.482-4.584 19.945 0 11.462 4.584 19.944 4.815 8.481 12.376 13.066 7.8 4.356 16.5 4.356c5.96 0 11.46-1.528 16.51-4.585 5.19-3.056 9.32-7.412 12.37-13.067 3.21-5.654 4.82-12.379 4.82-20.173M1145.75 149.623v169.64h-32.09v-169.64zM1295.5 253.012c0 4.584-.31 8.711-.92 12.379h-92.83q1.14 13.753 9.63 21.549c5.65 5.196 12.6 7.794 20.86 7.794q17.865 0 25.44-15.359h34.61q-5.505 18.339-21.09 30.259-15.585 11.692-38.28 11.692-18.33 0-33-8.024c-9.63-5.501-17.19-13.219-22.69-23.153-5.35-9.934-8.03-21.396-8.03-34.386 0-13.144 2.68-24.682 8.03-34.616 5.34-9.934 12.83-17.575 22.46-22.924 9.62-5.349 20.7-8.024 33.23-8.024 12.07 0 22.85 2.598 32.32 7.794q14.445 7.795 22.23 22.237c5.35 9.475 8.03 20.403 8.03 32.782m-33.24-9.17q-.225-12.379-8.94-19.715c-5.8-5.043-12.91-7.565-21.31-7.565-7.95 0-14.67 2.445-20.17 7.336-5.35 4.738-8.64 11.386-9.86 19.944z"/></svg>

<svg width="1955" height="445" viewBox="0 0 1955 445" fill="none" xmlns="http://www.w3.org/2000/svg">
<path d="M79.0016 329.035C78.6527 329.796 78.3159 330.562 77.9913 331.334C74.0072 340.813 71.9565 350.973 71.9565 361.234C71.9565 371.494 74.0072 381.654 77.9913 391.133C81.9755 400.612 87.8152 409.225 95.1769 416.48C102.538 423.736 111.276 429.491 120.894 433.418C130.512 437.345 140.82 439.366 151.231 439.366C161.641 439.366 171.949 437.345 181.567 433.418C191.185 429.491 199.924 423.736 207.285 416.48L353.162 272.715C368.359 257.735 376.897 237.419 376.897 216.236C376.897 197.209 370.922 178.876 357.872 164.491C351.433 161.749 344.314 160.908 337.421 162.184C331.256 163.324 325.604 166.932 320.9 171.169L182.319 311.341C179.748 313.957 176.791 316.128 173.574 317.794C175.274 316.763 176.95 315.687 178.601 314.566C178.46 314.622 178.319 314.678 178.178 314.733C178.316 314.641 178.453 314.55 178.59 314.458C178.732 314.363 178.873 314.268 179.014 314.173C178.736 314.361 178.457 314.547 178.178 314.733C157.175 328.668 132.109 335.445 106.814 334.013C97.3109 333.475 87.9752 331.79 79.0016 329.035Z" fill="#104ADE"/>
<path d="M178.17 314.732C178.449 314.547 178.728 314.36 179.006 314.172C173.682 316.299 167.902 317.079 162.194 316.441C156.486 315.803 151.031 313.768 146.326 310.52C142.153 307.622 138.67 303.863 136.12 299.506C133.57 295.148 132.013 290.295 131.558 285.284C131.102 280.273 131.759 275.224 133.483 270.489C135.207 265.754 137.957 261.445 141.541 257.863L187.669 212.003L255.037 145.606C255.132 145.527 255.227 145.447 255.321 145.366C255.51 145.205 255.698 145.044 255.897 144.894L266.037 134.894C270.996 133.885 276.24 133.451 281.71 133.451C293.558 133.451 303.636 134.592 313.682 137.455C328.293 140.565 341.735 147.784 352.362 158.301C354.366 160.297 356.256 162.419 358.007 164.552C351.53 161.762 344.357 160.899 337.413 162.183C331.247 163.324 325.596 166.932 320.891 171.169L182.311 311.341C179.739 313.957 176.783 316.128 173.565 317.794C175.265 316.763 176.942 315.687 178.593 314.566C178.452 314.622 178.311 314.678 178.17 314.732Z" fill="#0038C7"/>
<path d="M289.98 48.0622C286.286 39.2755 280.87 31.2932 274.042 24.5726C266.144 16.7826 256.766 10.6028 246.444 6.38648C236.123 2.17017 225.059 0 213.886 0C202.712 0 191.648 2.17017 181.327 6.38648C171.005 10.6028 161.627 16.7826 153.729 24.5726L33.6239 142.914C12.5349 163.7 0.480979 191.759 0.0140847 221.151C-0.45281 250.542 10.704 278.96 31.1224 300.386L32.3732 301.585L33.6698 302.908C34.8516 304.052 36.0926 305.136 37.3876 306.154C56.7579 322.762 81.1756 332.561 106.808 334.013C132.44 335.464 157.836 328.485 179.008 314.172C173.684 316.299 167.905 317.079 162.197 316.441C156.489 315.803 151.034 313.767 146.328 310.519C142.156 307.622 138.673 303.863 136.123 299.505C133.572 295.147 132.016 290.294 131.56 285.283C131.105 280.273 131.762 275.224 133.486 270.489C135.21 265.754 137.959 261.445 141.543 257.863L187.672 212.003L255.04 145.606C255.326 145.368 255.602 145.119 255.9 144.893L274.042 127.002C284.323 116.878 291.325 103.976 294.163 89.9274C297 75.8792 295.544 61.3172 289.98 48.0849V48.0622Z" fill="#0F75FC"/>
<path d="M1380.67 320.867C1369.52 320.867 1359.44 318.957 1350.42 315.136C1341.56 311.316 1334.53 305.814 1329.33 298.631C1324.14 291.448 1321.46 282.966 1321.31 273.185H1355.69C1356.15 279.757 1358.44 284.953 1362.57 288.773C1366.85 292.594 1372.65 294.504 1379.99 294.504C1387.47 294.504 1393.36 292.747 1397.64 289.232C1401.91 285.564 1404.05 280.826 1404.05 275.019C1404.05 270.281 1402.6 266.384 1399.7 263.327C1396.8 260.271 1393.13 257.902 1388.7 256.221C1384.42 254.387 1378.46 252.4 1370.82 250.261C1360.43 247.204 1351.95 244.224 1345.38 241.32C1338.96 238.264 1333.38 233.755 1328.64 227.795C1324.06 221.682 1321.77 213.582 1321.77 203.495C1321.77 194.02 1324.14 185.767 1328.87 178.737C1333.61 171.707 1340.26 166.358 1348.82 162.69C1357.37 158.869 1367.15 156.959 1378.15 156.959C1394.66 156.959 1408.03 161.009 1418.26 169.109C1428.66 177.056 1434.39 188.212 1435.46 202.578H1400.16C1399.85 197.076 1397.48 192.568 1393.05 189.053C1388.77 185.385 1383.04 183.551 1375.86 183.551C1369.6 183.551 1364.55 185.156 1360.73 188.365C1357.07 191.575 1355.23 196.236 1355.23 202.349C1355.23 206.628 1356.61 210.22 1359.36 213.123C1362.26 215.874 1365.78 218.167 1369.9 220.001C1374.18 221.682 1380.14 223.669 1387.78 225.961C1398.17 229.018 1406.65 232.074 1413.22 235.131C1419.79 238.187 1425.45 242.772 1430.18 248.885C1434.92 254.998 1437.29 263.022 1437.29 272.956C1437.29 281.514 1435.07 289.461 1430.64 296.797C1426.21 304.133 1419.72 310.017 1411.16 314.449C1402.6 318.728 1392.44 320.867 1380.67 320.867Z" fill="white"/>
<path d="M1641.14 192.262L1604.01 319.263H1569.4L1546.25 230.546L1523.1 319.263H1488.26L1450.9 192.262H1483.45L1505.91 289.003L1530.2 192.262H1564.13L1587.96 288.773L1610.43 192.262H1641.14Z" fill="white"/>
<path d="M1650.25 255.304C1650.25 242.466 1652.77 231.081 1657.81 221.147C1663.01 211.213 1669.96 203.572 1678.67 198.223C1687.54 192.874 1697.39 190.199 1708.24 190.199C1717.71 190.199 1725.97 192.109 1732.99 195.93C1740.18 199.751 1745.91 204.565 1750.19 210.372V192.262H1782.5V319.263H1750.19V300.694C1746.06 306.654 1740.33 311.621 1732.99 315.595C1725.81 319.415 1717.48 321.326 1708.01 321.326C1697.31 321.326 1687.54 318.575 1678.67 313.073C1669.96 307.571 1663.01 299.853 1657.81 289.92C1652.77 279.833 1650.25 268.294 1650.25 255.304ZM1750.19 255.762C1750.19 247.968 1748.66 241.32 1745.6 235.818C1742.54 230.164 1738.42 225.885 1733.22 222.981C1728.03 219.924 1722.45 218.396 1716.49 218.396C1710.53 218.396 1705.03 219.848 1699.99 222.752C1694.95 225.655 1690.82 229.934 1687.61 235.589C1684.56 241.091 1683.03 247.663 1683.03 255.304C1683.03 262.945 1684.56 269.67 1687.61 275.477C1690.82 281.132 1694.95 285.488 1699.99 288.544C1705.18 291.601 1710.69 293.129 1716.49 293.129C1722.45 293.129 1728.03 291.677 1733.22 288.773C1738.42 285.717 1742.54 281.438 1745.6 275.936C1748.66 270.281 1750.19 263.557 1750.19 255.762Z" fill="white"/>
<path d="M1845.93 210.602C1850.06 204.794 1855.71 199.98 1862.89 196.159C1870.23 192.186 1878.56 190.199 1887.88 190.199C1898.73 190.199 1908.51 192.874 1917.22 198.223C1926.08 203.572 1933.03 211.213 1938.07 221.147C1943.27 230.928 1945.87 242.314 1945.87 255.304C1945.87 268.294 1943.27 279.833 1938.07 289.92C1933.03 299.853 1926.08 307.571 1917.22 313.073C1908.51 318.575 1898.73 321.326 1887.88 321.326C1878.56 321.326 1870.31 319.415 1863.12 315.595C1856.09 311.774 1850.36 306.96 1845.93 301.152V379.783H1813.84V192.262H1845.93V210.602ZM1913.09 255.304C1913.09 247.663 1911.49 241.091 1908.28 235.589C1905.22 229.934 1901.1 225.655 1895.9 222.752C1890.86 219.848 1885.36 218.396 1879.4 218.396C1873.59 218.396 1868.09 219.924 1862.89 222.981C1857.85 225.885 1853.73 230.164 1850.52 235.818C1847.46 241.473 1845.93 248.121 1845.93 255.762C1845.93 263.404 1847.46 270.052 1850.52 275.707C1853.73 281.361 1857.85 285.717 1862.89 288.773C1868.09 291.677 1873.59 293.129 1879.4 293.129C1885.36 293.129 1890.86 291.601 1895.9 288.544C1901.1 285.488 1905.22 281.132 1908.28 275.477C1911.49 269.823 1913.09 263.098 1913.09 255.304Z" fill="white"/>
<path d="M569.919 320.867C558.764 320.867 548.679 318.957 539.663 315.136C530.801 311.316 523.772 305.814 518.576 298.631C513.381 291.448 510.707 282.966 510.554 273.185H544.935C545.394 279.757 547.686 284.953 551.811 288.773C556.09 292.594 561.897 294.505 569.231 294.505C576.719 294.505 582.602 292.747 586.88 289.232C591.159 285.564 593.298 280.826 593.298 275.019C593.298 270.281 591.846 266.384 588.943 263.328C586.04 260.271 582.372 257.902 577.941 256.221C573.663 254.387 567.703 252.4 560.063 250.261C549.672 247.204 541.192 244.224 534.621 241.32C528.203 238.264 522.626 233.755 517.889 227.795C513.305 221.682 511.013 213.582 511.013 203.495C511.013 194.02 513.381 185.767 518.118 178.737C522.855 171.707 529.502 166.358 538.059 162.69C546.616 158.869 556.396 156.959 567.398 156.959C583.9 156.959 597.271 161.009 607.509 169.109C617.899 177.056 623.63 188.212 624.699 202.578H589.401C589.096 197.076 586.727 192.568 582.296 189.053C578.017 185.385 572.287 183.551 565.105 183.551C558.84 183.551 553.798 185.156 549.978 188.365C546.31 191.575 544.477 196.236 544.477 202.349C544.477 206.628 545.852 210.22 548.603 213.123C551.506 215.874 555.02 218.167 559.146 220.001C563.425 221.682 569.384 223.669 577.024 225.961C587.415 229.018 595.896 232.074 602.466 235.131C609.037 238.187 614.691 242.772 619.427 248.885C624.164 254.998 626.533 263.022 626.533 272.956C626.533 281.514 624.317 289.461 619.886 296.797C615.455 304.133 608.96 310.017 600.403 314.449C591.846 318.728 581.685 320.867 569.919 320.867Z" fill="white"/>
<path d="M670.627 177.132C664.973 177.132 660.236 175.375 656.416 171.86C652.748 168.192 650.915 163.683 650.915 158.335C650.915 152.986 652.748 148.553 656.416 145.038C660.236 141.371 664.973 139.537 670.627 139.537C676.28 139.537 680.941 141.371 684.608 145.038C688.428 148.553 690.338 152.986 690.338 158.335C690.338 163.683 688.428 168.192 684.608 171.86C680.941 175.375 676.28 177.132 670.627 177.132ZM686.442 192.262V319.263H654.353V192.262H686.442Z" fill="white"/>
<path d="M875.84 190.428C891.426 190.428 903.956 195.243 913.43 204.871C923.057 214.346 927.87 227.642 927.87 244.759V319.263H895.781V249.115C895.781 239.181 893.26 231.616 888.217 226.42C883.175 221.071 876.299 218.396 867.589 218.396C858.879 218.396 851.926 221.071 846.731 226.42C841.688 231.616 839.167 239.181 839.167 249.115V319.263H807.078V249.115C807.078 239.181 804.557 231.616 799.514 226.42C794.472 221.071 787.596 218.396 778.886 218.396C770.023 218.396 762.994 221.071 757.799 226.42C752.756 231.616 750.235 239.181 750.235 249.115V319.263H718.146V192.262H750.235V207.622C754.361 202.273 759.632 198.07 766.05 195.013C772.621 191.957 779.802 190.428 787.596 190.428C797.528 190.428 806.39 192.568 814.184 196.847C821.977 200.974 828.012 206.934 832.291 214.728C836.417 207.392 842.376 201.508 850.169 197.076C858.115 192.644 866.672 190.428 875.84 190.428Z" fill="white"/>
<path d="M990.41 210.602C994.535 204.794 1000.19 199.98 1007.37 196.16C1014.71 192.186 1023.03 190.199 1032.35 190.199C1043.2 190.199 1052.98 192.874 1061.69 198.223C1070.56 203.572 1077.51 211.213 1082.55 221.147C1087.75 230.928 1090.34 242.314 1090.34 255.304C1090.34 268.294 1087.75 279.833 1082.55 289.92C1077.51 299.853 1070.56 307.571 1061.69 313.073C1052.98 318.575 1043.2 321.326 1032.35 321.326C1023.03 321.326 1014.78 319.416 1007.6 315.595C1000.57 311.774 994.841 306.96 990.41 301.153V379.783H958.321V192.262H990.41V210.602ZM1057.57 255.304C1057.57 247.663 1055.96 241.091 1052.75 235.589C1049.7 229.935 1045.57 225.655 1040.38 222.752C1035.33 219.848 1029.83 218.396 1023.87 218.396C1018.07 218.396 1012.57 219.924 1007.37 222.981C1002.33 225.885 998.203 230.164 994.994 235.818C991.938 241.473 990.41 248.121 990.41 255.763C990.41 263.404 991.938 270.052 994.994 275.707C998.203 281.361 1002.33 285.717 1007.37 288.773C1012.57 291.677 1018.07 293.129 1023.87 293.129C1029.83 293.129 1035.33 291.601 1040.38 288.544C1045.57 285.488 1049.7 281.132 1052.75 275.477C1055.96 269.823 1057.57 263.098 1057.57 255.304Z" fill="white"/>
<path d="M1145.75 149.623V319.263H1113.66V149.623H1145.75Z" fill="white"/>
<path d="M1295.5 253.012C1295.5 257.596 1295.19 261.723 1294.58 265.391H1201.75C1202.51 274.56 1205.72 281.743 1211.38 286.94C1217.03 292.136 1223.98 294.734 1232.24 294.734C1244.15 294.734 1252.63 289.614 1257.68 279.375H1292.29C1288.62 291.601 1281.59 301.687 1271.2 309.634C1260.81 317.429 1248.05 321.326 1232.92 321.326C1220.7 321.326 1209.7 318.651 1199.92 313.302C1190.29 307.801 1182.73 300.083 1177.23 290.149C1171.88 280.215 1169.2 268.753 1169.2 255.763C1169.2 242.619 1171.88 231.081 1177.23 221.147C1182.57 211.213 1190.06 203.572 1199.69 198.223C1209.31 192.874 1220.39 190.199 1232.92 190.199C1244.99 190.199 1255.77 192.797 1265.24 197.993C1274.87 203.19 1282.28 210.602 1287.47 220.23C1292.82 229.705 1295.5 240.633 1295.5 253.012ZM1262.26 243.842C1262.11 235.589 1259.13 229.018 1253.32 224.127C1247.52 219.084 1240.41 216.562 1232.01 216.562C1224.06 216.562 1217.34 219.007 1211.84 223.898C1206.49 228.636 1203.2 235.284 1201.98 243.842H1262.26Z" fill="white"/>
</svg>
